X: 86
T: King Of The Fairies
M: 4/4
L: 1/8
R: hornpipe
K:Edor
B,2|"Em"EDEF "G"GFGA|"Em"B=cBA G2E2|BEED EFGB|"D"AGFE "Bm"D2B,2|
"Em"EDEF "G"GFGA|"Em"BAGB "G"d3=c|"Em"B2E2 "G"GFED|"Em"E2EDE2 :|
|: d2|"Em"e2e2 "Bm"Bdef|"G"gagf "Em"edef|e2B2 B3c|"D"dedc "Em"BcdB|
"Em"e2e2 "Bm"Bdef|"G"gagf "Em"efed|Bdeg "D"fedf|"Em"e2ede3 f|
"G"g4 "D"f4|"Em"edBc "D"d3e|dBAF "G"GABc|"D"dBAF "G"GFED|
"Em"B,2E2 EFGA|B2e2 "A"edef|"Em"e2B2 "D"BAGF|"Em"E6:|


